<?xml version="1.0" encoding="UTF-8"?>
<map version="1.8" tiledversion="1.8.2" orientation="orthogonal" renderorder="right-down" width="21" height="23" tilewidth="16" tileheight="16" infinite="0" nextlayerid="2" nextobjectid="1">
 <properties>
   <property name="obj1" value="0x0E"/>
   <property name="obj2" value="0x00"/>
   <property name="pal" value="0x72"/>
   <property name="config" value="0x10"/>
   <property name="note" value="Chapter 1: Ostia harbor district"/>
 </properties>
 <tileset firstgid="1" source="tilesets/fe8_0e_00_72_10.tsx"/>
 <layer id="1" name="Map" width="21" height="23">
  <data encoding="csv">
507,517,523,226,226,910,815,913,815,913,815,913,462,517,912,878,913,462,517,517,549,
507,517,523,420,459,908,455,809,807,811,745,748,517,523,523,579,522,165,423,517,517,
476,507,517,556,583,908,455,841,839,843,777,780,517,523,517,556,517,203,519,519,517,
476,507,517,519,490,910,455,556,424,556,556,556,519,517,556,556,521,303,485,485,523,
476,507,517,523,579,908,455,519,490,490,490,519,517,519,517,523,420,522,517,517,517,
508,507,517,523,420,908,455,523,673,610,675,522,517,519,809,807,811,866,519,519,519,
507,507,517,517,556,910,455,523,705,642,707,522,490,517,841,839,843,898,517,517,517,
476,507,517,519,517,908,455,519,521,556,556,523,579,522,556,517,556,556,519,517,519,
539,475,507,517,519,908,455,523,420,522,519,517,556,519,230,239,813,651,519,517,581,
878,878,846,487,549,938,939,940,549,583,845,879,879,879,878,913,390,390,390,912,879,
549,549,549,519,519,970,971,972,485,519,549,549,556,458,549,556,485,485,549,549,556,
519,485,519,581,581,581,581,519,581,485,581,519,519,581,581,519,581,485,485,581,581,
390,390,912,879,879,878,879,913,390,390,912,879,879,879,878,879,913,390,390,912,878,
549,549,550,550,489,429,550,421,489,550,521,421,549,556,549,550,550,581,519,549,421,
581,585,912,879,878,879,878,879,878,879,878,913,423,581,585,912,878,878,879,879,878,
592,219,369,475,475,475,404,411,475,475,475,367,218,559,219,369,368,475,475,475,475,
591,221,508,507,508,507,223,442,508,475,507,476,220,527,221,476,508,475,508,404,411,
590,221,476,476,476,252,253,254,255,508,476,476,220,527,221,476,476,508,475,223,442,
592,221,476,476,283,284,285,286,287,288,508,476,220,559,221,476,476,476,252,253,254,
559,219,476,476,315,354,359,359,319,320,476,475,218,527,219,476,540,283,284,285,286,
591,221,476,508,347,386,318,318,387,352,476,508,220,559,221,476,508,315,316,359,359,
559,221,476,540,379,446,318,318,318,391,360,360,392,559,221,476,540,347,361,351,318,
591,221,476,540,282,446,318,356,415,281,475,507,220,590,391,360,360,392,447,318,318
</data>
 </layer>
</map>
