<?xml version="1.0" encoding="UTF-8"?>
<map version="1.8" tiledversion="1.8.2" orientation="orthogonal" renderorder="right-down" width="20" height="15" tilewidth="16" tileheight="16" infinite="0" nextlayerid="2" nextobjectid="1">
 <properties>
   <property name="obj1" value="0x01"/>
   <property name="obj2" value="0x00"/>
   <property name="pal" value="0x02"/>
   <property name="config" value="0x03"/>
   <property name="note" value="Prologue: Merrow Point, southern Renais coast"/>
 </properties>
 <tileset firstgid="1" source="tilesets/fe8_01_00_02_03.tsx"/>
 <layer id="1" name="Map" width="20" height="15">
  <data encoding="csv">
214,316,316,214,214,214,59,100,132,721,99,783,721,99,99,560,588,557,451,524,
281,434,434,216,316,284,932,933,900,721,99,721,783,783,100,99,496,588,611,525,
214,247,434,434,434,434,200,686,164,783,99,99,721,99,100,100,560,716,613,417,
214,215,434,434,434,434,272,99,99,67,100,743,775,164,100,783,100,99,690,748,
281,434,434,434,434,434,177,209,434,232,592,425,650,746,721,133,99,99,721,99,
246,247,248,314,247,434,402,274,232,656,524,426,529,67,67,99,100,99,100,99,
214,246,213,213,213,314,434,232,494,550,417,619,561,99,99,99,132,721,99,100,
278,245,214,213,213,247,434,99,464,525,460,529,850,99,100,99,99,100,100,132,
214,214,316,246,213,246,247,99,464,420,619,561,164,100,933,131,131,132,132,99,
214,281,434,216,214,246,281,100,496,457,430,650,746,131,131,131,808,809,810,131,
214,215,434,434,315,278,215,99,496,588,546,497,680,100,165,163,840,841,842,721,
281,434,434,434,216,215,402,200,560,716,425,561,99,721,721,99,872,873,874,99,
214,247,434,434,434,434,434,232,99,721,752,67,783,99,721,100,131,329,268,133,
214,281,434,434,434,434,434,210,100,164,163,783,131,99,132,805,100,235,327,131,
246,215,434,434,434,234,302,99,99,166,100,99,100,99,99,100,99,71,72,100
</data>
 </layer>
</map>
